src/icons/editor/glyph/ColumnsIcon.svg

<svg width="24" height="24" viewBox="0 0 24 24" fill="none" xmlns="http://www.w3.org/2000/svg">
<path fill-rule="evenodd" clip-rule="evenodd" d="M5 3C3.89542 3 3 3.89539 3 5V19C3 20.1046 3.89542 21 5 21H9C10.1046 21 11 20.1046 11 19V5C11 3.89539 10.1046 3 9 3H5ZM15 3C13.8954 3 13 3.89539 13 5V19C13 20.1046 13.8954 21 15 21H19C20.1046 21 21 20.1046 21 19V5C21 3.89539 20.1046 3 19 3H15Z" fill="currentColor"/>
</svg>

<svg xmlns="http://www.w3.org/2000/svg" width="24" height="24" fill="currentColor" viewBox="0 0 24 24">
  <path fill-rule="evenodd" d="M5 3a2 2 0 0 0-2 2v14a2 2 0 0 0 2 2h4a2 2 0 0 0 2-2V5a2 2 0 0 0-2-2H5Zm10 0a2 2 0 0 0-2 2v14a2 2 0 0 0 2 2h4a2 2 0 0 0 2-2V5a2 2 0 0 0-2-2h-4Z" clip-rule="evenodd"/>
</svg>
